assets/original-vector/SVG/exported/bmp00137.svg

<?xml version="1.0" encoding="UTF-8" standalone="no"?>
<svg
   xmlns:dc="http://purl.org/dc/elements/1.1/"
   xmlns:cc="http://creativecommons.org/ns#"
   xmlns:rdf="http://www.w3.org/1999/02/22-rdf-syntax-ns#"
   xmlns:svg="http://www.w3.org/2000/svg"
   xmlns="http://www.w3.org/2000/svg"
   xmlns:sodipodi="http://sodipodi.sourceforge.net/DTD/sodipodi-0.dtd"
   xmlns:inkscape="http://www.inkscape.org/namespaces/inkscape"
   width="119px"
   height="51px"
   viewBox="0 0 119 51"
   version="1.1"
   id="svg82"
   sodipodi:docname="bmp00137.svg"
   inkscape:version="0.92.4 (5da689c313, 2019-01-14)">
  <metadata
     id="metadata88">
    <rdf:RDF>
      <cc:Work
         rdf:about="">
        <dc:format>image/svg+xml</dc:format>
        <dc:type
           rdf:resource="http://purl.org/dc/dcmitype/StillImage" />
      </cc:Work>
    </rdf:RDF>
  </metadata>
  <defs
     id="defs86" />
  <sodipodi:namedview
     pagecolor="#ffffff"
     bordercolor="#666666"
     borderopacity="1"
     objecttolerance="10"
     gridtolerance="10"
     guidetolerance="10"
     inkscape:pageopacity="0"
     inkscape:pageshadow="2"
     inkscape:window-width="2560"
     inkscape:window-height="1057"
     id="namedview84"
     showgrid="false"
     inkscape:zoom="8"
     inkscape:cx="13.846771"
     inkscape:cy="34.117419"
     inkscape:window-x="-8"
     inkscape:window-y="-8"
     inkscape:window-maximized="1"
     inkscape:current-layer="bmp00137" />
  <g
     id="bmp00137"
     stroke="none"
     stroke-width="1"
     fill="none"
     fill-rule="evenodd">
    <circle
       id="Oval"
       stroke="#000000"
       fill="#7F7F7F"
       cx="75.5"
       cy="25.5"
       r="4" />
    <polygon
       id="Path"
       fill="#FFFFFF"
       points="76 25 77 25 77 26 76 26 76 27 75 27 75 26 74 26 74 25 75 25 75 24 76 24" />
    <rect
       id="Rectangle"
       stroke="#000000"
       fill="#FFFFFF"
       x="17.5"
       y="0.5"
       width="18"
       height="10" />
    <rect
       id="rect5"
       stroke="#000000"
       fill="#FFFFFF"
       x="43.5"
       y="0.5"
       width="18"
       height="10" />
    <rect
       id="rect7"
       stroke="#000000"
       fill="#FFFFFF"
       x="17.5"
       y="20.5"
       width="18"
       height="10" />
    <rect
       id="rect9"
       stroke="#000000"
       fill="#FFFFFF"
       x="43.5"
       y="20.5"
       width="18"
       height="10" />
    <rect
       id="rect11"
       stroke="#000000"
       fill="#FFFFFF"
       x="88.5"
       y="10.5"
       width="18"
       height="10" />
    <rect
       id="rect13"
       stroke="#000000"
       fill="#FFFFFF"
       x="88.5"
       y="30.5"
       width="18"
       height="10" />
    <rect
       id="rect15"
       fill="#000000"
       x="61"
       y="5"
       width="5"
       height="1" />
    <rect
       id="rect17"
       fill="#000000"
       x="65"
       y="5"
       width="1"
       height="41" />
    <rect
       id="rect21"
       x="19"
       y="13"
       width="46.487862"
       height="1"
       style="fill:#000000;stroke-width:1.01639736" />
    <rect
       id="rect23"
       stroke="#000000"
       fill="#FFFFFF"
       x="17.5"
       y="40.5"
       width="18"
       height="10" />
    <rect
       id="rect25"
       stroke="#000000"
       fill="#FFFFFF"
       x="43.5"
       y="40.5"
       width="18"
       height="10" />
    <rect
       id="rect27"
       stroke="#000000"
       fill="#7F7F7F"
       x="0.5"
       y="0.5"
       width="9"
       height="10" />
    <rect
       id="rect29"
       stroke="#000000"
       fill="#7F7F7F"
       x="0.5"
       y="40.5"
       width="9"
       height="10" />
    <rect
       id="rect31"
       x="20"
       y="37"
       width="45.558594"
       height="1"
       style="fill:#000000;stroke-width:1.01755714" />
    <rect
       id="rect35"
       fill="#000000"
       x="61"
       y="45"
       width="5"
       height="1" />
    <rect
       id="rect37"
       fill="#000000"
       x="80"
       y="25"
       width="3"
       height="1" />
    <rect
       id="rect39"
       fill="#000000"
       x="82"
       y="15"
       width="1"
       height="11" />
    <rect
       id="rect41"
       fill="#000000"
       x="82"
       y="15"
       width="7"
       height="1" />
    <rect
       id="rect43"
       fill="#000000"
       x="106"
       y="15"
       width="4"
       height="1" />
    <rect
       id="rect45"
       fill="#000000"
       x="109"
       y="16"
       width="1"
       height="10" />
    <rect
       id="rect47"
       fill="#000000"
       x="85"
       y="25"
       width="25"
       height="1" />
    <rect
       id="rect49"
       fill="#000000"
       x="85"
       y="25"
       width="1"
       height="11" />
    <rect
       id="rect51"
       fill="#000000"
       x="85"
       y="35"
       width="4"
       height="1" />
    <rect
       id="rect53"
       fill="#000000"
       x="106"
       y="35"
       width="7"
       height="1" />
    <rect
       id="rect55"
       fill="#000000"
       x="112"
       y="25"
       width="1"
       height="11" />
    <path
       d="M5.713,6.0715 L5.1635,4.5175 C5.13083317,4.43583292 5.09641685,4.34016721 5.06025,4.2305 C5.02408315,4.12083278 4.98966683,4.00183397 4.957,3.8735 C4.92433317,4.00416732 4.88991685,4.12491611 4.85375,4.23575 C4.81758315,4.34658389 4.78316683,4.44283293 4.7505,4.5245 L4.2045,6.0715 L5.713,6.0715 Z M7.477,8 L6.6615,8 C6.57049955,8 6.49641695,7.97841688 6.43925,7.93525 C6.38208305,7.89208312 6.33950014,7.836667 6.3115,7.769 L5.9685,6.7995 L3.9455,6.7995 L3.6025,7.769 C3.57916655,7.82733362 3.53833362,7.88041643 3.48,7.92825 C3.42166638,7.97608357 3.34816711,8 3.2595,8 L2.437,8 L4.4215,2.9215 L5.496,2.9215 L7.477,8 Z"
       id="A"
       fill="#FFFFFF"
       fill-rule="nonzero" />
    <path
       d="M4.9815,47.195 C5.14950084,47.195 5.28774946,47.1745835 5.39625,47.13375 C5.50475054,47.0929165 5.59166634,47.038667 5.657,46.971 C5.72233366,46.903333 5.7678332,46.8257504 5.7935,46.73825 C5.8191668,46.6507496 5.832,46.5603338 5.832,46.467 C5.832,46.3643328 5.81683349,46.2721671 5.7865,46.1905 C5.75616652,46.1088329 5.70716701,46.039417 5.6395,45.98225 C5.571833,45.925083 5.48375054,45.8813335 5.37525,45.851 C5.26674946,45.8206665 5.13316746,45.8055 4.9745,45.8055 L4.082,45.8055 L4.082,47.195 L4.9815,47.195 Z M4.082,43.7195 L4.082,45.0915 L4.7715,45.0915 C4.91850074,45.0915 5.0491661,45.0792501 5.1635,45.05475 C5.27783391,45.0302499 5.37349962,44.9911669 5.4505,44.9375 C5.52750039,44.8838331 5.58641646,44.8132504 5.62725,44.72575 C5.66808354,44.6382496 5.6885,44.5326673 5.6885,44.409 C5.6885,44.2829994 5.6715835,44.1756671 5.63775,44.087 C5.6039165,43.9983329 5.55200035,43.9271669 5.482,43.8735 C5.41199965,43.8198331 5.32333387,43.7807501 5.216,43.75625 C5.10866613,43.7317499 4.98150074,43.7195 4.8345,43.7195 L4.082,43.7195 Z M4.8345,42.9215 C5.17516837,42.9215 5.46624879,42.953583 5.70775,43.01775 C5.94925121,43.081917 6.1464159,43.1729161 6.29925,43.29075 C6.4520841,43.4085839 6.56349965,43.5514992 6.6335,43.7195 C6.70350035,43.8875008 6.7385,44.0753323 6.7385,44.283 C6.7385,44.3996673 6.7215835,44.5116661 6.68775,44.619 C6.6539165,44.7263339 6.60141702,44.8272495 6.53025,44.92175 C6.45908298,45.0162505 6.36750056,45.1019996 6.2555,45.179 C6.14349944,45.2560004 6.01050077,45.3213331 5.8565,45.375 C6.20183506,45.4566671 6.45733251,45.5896657 6.623,45.774 C6.7886675,45.9583343 6.8715,46.1974985 6.8715,46.4915 C6.8715,46.7061677 6.83008375,46.9056657 6.74725,47.09 C6.66441625,47.2743343 6.54366746,47.434166 6.385,47.5695 C6.22633254,47.704834 6.03091783,47.8104163 5.79875,47.88625 C5.56658217,47.9620837 5.30000151,48 4.999,48 L3.032,48 L3.032,42.9215 L4.8345,42.9215 Z"
       id="B"
       fill="#FFFFFF"
       fill-rule="nonzero" />
    <polygon
       id="polygon59"
       fill="#000000"
       points="12 5 12 3 16 5.5 12 8 12 6 10 6 10 5" />
    <polygon
       id="polygon61"
       fill="#000000"
       points="20 15 22 15 19.5 19 17 15 19 15 19 13 20 13" />
    <polygon
       id="polygon63"
       fill="#000000"
       points="46 15 48 15 45.5 19 43 15 45 15 45 13 46 13" />
    <polygon
       id="polygon65"
       fill="#000000"
       points="67 25 67 23 70 25.5 67 28 67 26 62 26 62 25" />
    <polygon
       id="polygon67"
       fill="#000000"
       points="39 25 39 23 42 25.5 39 28 39 26 36 26 36 25" />
    <polygon
       id="polygon69"
       fill="#000000"
       points="19 36 17 36 19.5 32 22 36 20 36 20 38 19 38" />
    <polygon
       id="polygon71"
       fill="#000000"
       points="45 36 43 36 45.5 32 48 36 46 36 46 37 45 37" />
    <polygon
       id="polygon73"
       fill="#000000"
       points="38 5 38 3 42 5.5 38 8 38 6 36 6 36 5" />
    <polygon
       id="polygon75"
       fill="#000000"
       points="12 45 12 43 16 45.5 12 48 12 46 10 46 10 45" />
    <polygon
       id="polygon77"
       fill="#000000"
       points="38 45 38 43 42 45.5 38 48 38 46 36 46 36 45" />
    <polygon
       id="polygon79"
       fill="#000000"
       points="114 25 114 23 118 25.5 114 28 114 26 112 26 112 25" />
  </g>
</svg>

<?xml version="1.0" encoding="UTF-8"?>
<svg width="119px" height="51px" version="1.1" viewBox="0 0 119 51" xmlns="http://www.w3.org/2000/svg" xmlns:cc="http://creativecommons.org/ns#" xmlns:dc="http://purl.org/dc/elements/1.1/" xmlns:rdf="http://www.w3.org/1999/02/22-rdf-syntax-ns#">
 <metadata>
  <rdf:RDF>
   <cc:Work rdf:about="">
    <dc:format>image/svg+xml</dc:format>
    <dc:type rdf:resource="http://purl.org/dc/dcmitype/StillImage"/>
    <dc:title/>
   </cc:Work>
  </rdf:RDF>
 </metadata>
 <g fill="none" fill-rule="evenodd">
  <circle id="Oval" cx="75.5" cy="25.5" r="4" fill="#7F7F7F" stroke="#000"/>
  <g fill="#fff">
   <polygon id="Path" points="76 25 77 25 77 26 76 26 76 27 75 27 75 26 74 26 74 25 75 25 75 24 76 24"/>
   <g stroke="#000">
    <rect id="Rectangle" x="17.5" y=".5" width="18" height="10"/>
    <rect x="43.5" y=".5" width="18" height="10"/>
    <rect x="17.5" y="20.5" width="18" height="10"/>
    <rect x="43.5" y="20.5" width="18" height="10"/>
    <rect x="88.5" y="10.5" width="18" height="10"/>
    <rect x="88.5" y="30.5" width="18" height="10"/>
   </g>
  </g>
  <g fill="#000">
   <rect x="61" y="5" width="5" height="1"/>
   <rect x="65" y="5" width="1" height="41"/>
   <rect x="19" y="13" width="46.488" height="1" stroke-width="1.0164"/>
  </g>
  <g stroke="#000">
   <rect x="17.5" y="40.5" width="18" height="10" fill="#fff"/>
   <rect x="43.5" y="40.5" width="18" height="10" fill="#fff"/>
   <rect x=".5" y=".5" width="9" height="10" fill="#7F7F7F"/>
   <rect x=".5" y="40.5" width="9" height="10" fill="#7F7F7F"/>
  </g>
  <g fill="#000">
   <rect x="20" y="37" width="45.559" height="1" stroke-width="1.0176"/>
   <rect x="61" y="45" width="5" height="1"/>
   <rect x="80" y="25" width="3" height="1"/>
   <rect x="82" y="15" width="1" height="11"/>
   <rect x="82" y="15" width="7" height="1"/>
   <rect x="106" y="15" width="4" height="1"/>
   <rect x="109" y="16" width="1" height="10"/>
   <rect x="85" y="25" width="25" height="1"/>
   <rect x="85" y="25" width="1" height="11"/>
   <rect x="85" y="35" width="4" height="1"/>
   <rect x="106" y="35" width="7" height="1"/>
   <rect x="112" y="25" width="1" height="11"/>
  </g>
  <path id="A" d="m5.713 6.0715-0.5495-1.554c-0.032667-0.081667-0.067083-0.17733-0.10325-0.287-0.036167-0.10967-0.070583-0.22867-0.10325-0.357-0.032667 0.13067-0.067083 0.25142-0.10325 0.36225s-0.070583 0.20708-0.10325 0.28875l-0.546 1.547h1.5085zm1.764 1.9285h-0.8155c-0.091 0-0.16508-0.021583-0.22225-0.06475s-0.09975-0.098583-0.12775-0.16625l-0.343-0.9695h-2.023l-0.343 0.9695c-0.023333 0.058334-0.064166 0.11142-0.1225 0.15925s-0.13183 0.07175-0.2205 0.07175h-0.8225l1.9845-5.0785h1.0745l1.981 5.0785z" fill="#fff" fill-rule="nonzero"/>
  <path id="B" d="m4.9815 47.195c0.168 0 0.30625-0.020416 0.41475-0.06125s0.19542-0.095083 0.26075-0.16275 0.11083-0.14525 0.1365-0.23275 0.0385-0.17792 0.0385-0.27125c0-0.10267-0.015167-0.19483-0.0455-0.2765-0.030333-0.081667-0.079333-0.15108-0.147-0.20825-0.067667-0.057167-0.15575-0.10092-0.26425-0.13125s-0.24208-0.0455-0.40075-0.0455h-0.8925v1.3895h0.8995zm-0.8995-3.4755v1.372h0.6895c0.147 0 0.27767-0.01225 0.392-0.03675 0.11433-0.0245 0.21-0.063583 0.287-0.11725 0.077-0.053667 0.13592-0.12425 0.17675-0.21175s0.06125-0.19308 0.06125-0.31675c0-0.126-0.016916-0.23333-0.05075-0.322s-0.08575-0.15983-0.15575-0.2135-0.15867-0.09275-0.266-0.11725-0.2345-0.03675-0.3815-0.03675h-0.7525zm0.7525-0.798c0.34067 0 0.63175 0.032083 0.87325 0.09625s0.43867 0.15517 0.5915 0.273 0.26425 0.26075 0.33425 0.42875 0.105 0.35583 0.105 0.5635c0 0.11667-0.016916 0.22867-0.05075 0.336s-0.086333 0.20825-0.1575 0.30275-0.16275 0.18025-0.27475 0.25725-0.245 0.14233-0.399 0.196c0.34534 0.081667 0.60083 0.21467 0.7665 0.399 0.16567 0.18433 0.2485 0.4235 0.2485 0.7175 0 0.21467-0.041416 0.41417-0.12425 0.5985s-0.20358 0.34417-0.36225 0.4795-0.35408 0.24092-0.58625 0.31675-0.49875 0.11375-0.79975 0.11375h-1.967v-5.0785h1.8025z" fill="#fff" fill-rule="nonzero"/>
  <g fill="#000">
   <polygon points="12 5 12 3 16 5.5 12 8 12 6 10 6 10 5"/>
   <polygon points="20 15 22 15 19.5 19 17 15 19 15 19 13 20 13"/>
   <polygon points="46 15 48 15 45.5 19 43 15 45 15 45 13 46 13"/>
   <polygon points="67 25 67 23 70 25.5 67 28 67 26 62 26 62 25"/>
   <polygon points="39 25 39 23 42 25.5 39 28 39 26 36 26 36 25"/>
   <polygon points="19 36 17 36 19.5 32 22 36 20 36 20 38 19 38"/>
   <polygon points="45 36 43 36 45.5 32 48 36 46 36 46 37 45 37"/>
   <polygon points="38 5 38 3 42 5.5 38 8 38 6 36 6 36 5"/>
   <polygon points="12 45 12 43 16 45.5 12 48 12 46 10 46 10 45"/>
   <polygon points="38 45 38 43 42 45.5 38 48 38 46 36 46 36 45"/>
   <polygon points="114 25 114 23 118 25.5 114 28 114 26 112 26 112 25"/>
  </g>
 </g>
</svg>
